d1 
  $ (|* gain 1.2)
  $ stack [
    (|+ note "-32") $ note (scale "ritusen" "{0 -2 0 -1 1 2 -4}%8") # midichan 0 # s "rytm" # legato 0.25
    , (|+ note "-32") $ note (scale "ritusen" "{10 9 10 7 11 12}%8") # midichan 1 # s "rytm" # legato 0.125
  ] # cps (130/120/2)

  hush