
do
  let pat = "{1@2 1@5 1@10 1@11 1@3}%16"
  d1
    $ limit
    $ every 2 rev
    $ stack [
      one 0.1 $ struct pat $ s "rytm" # midichan 2 # note "c3"
      , one 0.1 $ struct pat $ s "harmor" # midichan 0 # note "c5"
    ] # cps (180/120/2)

    hush