d1   
  $ cpsDisc 0.5 1.5
  $ whenmod 10 5 rev
  $ gain "<1*3 1*3 1*5 1*3 1*10>"
  # s "speeds7pad" 
  # n "[6,4,3]"
  # note "[c5, f5, d4]"
  # beginend (range 0.1 0.4 $ slow 5 saw) 0.08
  # cps 0.666
  # hpf 800
  # lpf 5000